X:1
T:William Billings
T:Adoration
%%score [ 1 2 3 4 ]
L:1/8
M:3/2
K:D
V:1 treble nm="Soprano" snm="S"
V:2 alto nm="Alto" snm="A"
V:3 treble-8 nm="Tenor" snm="T"
V:4 bass nm="Bass" snm="B"
V:1
 z4 z4 F4 | (c4 d2 c2) B4 | (A3 G F4) A4 | A8 ^G4 | A8 A4 | (A4 G4) F4 | (B3 A G4) A4 | B8 A4 | %8
w: ||||||||
 A8 d4 | (A4 e4) c4 | (d3 c B4) A4 | (B3 c B2 c2) d4 | c8 c4 | (d4 A4) A4 | (A3 G F4) A4 | %15
w: |||||||
 B2 G>B A4 A4 | A12 |[M:3/4] z2 z2 z2 | z2 z2 z2 | z2 z2 z2 | z2 z2 A2 | B4 d2 | c4 c2 | %23
w: |||||be|hon- our|praise and|
 (d>c B2) A2 | B4 A2 | A4 B2 | c4 d2 | (A2 BA) (Bc) | (d>c B2) B2 | (A2 B2) A2 | (B2 A2) (Bc) | %31
w: Glo * * ry|Glo- ry|giv'n by|all on|earth * * and *|all * * and|all * and|all * in *|
 d4 A2 | (A2 G2) F2 | B4 d2 | B4 A2 | A4 A2 | (B2 A2) (Bc) | (d>c B2) A2 | (B2 AB) c2 | d4 B2 | %40
w: heav'n by|all * on|earth and|all in|heav'n be|hon * our *|praise * * and|Glo * * ry|giv'n by|
 (d>c B2) d2 | (A>B cA) d2 | (d>c B2) A2 | A4 A2 | (A2 G2) F2 | BB B2 d2 | c4 c2 | (d>c B2) A2 | %48
w: all * * on|Earth * * * and|all * * in|heav'n be|hon * our|praise and Glo- ry|giv'n by|all * * on|
 B4 d2 | (A2 B2) A2 | A4 z2 | z2 z2 z2 | z2 z2 z2 | z2 z2 A2 | B4 d2 | c4 c2 | (d>c B2) A2 | %57
w: Earth and|all * in|Heav'n|||be|hon- our|praise and|Glo * * ry|
 B4 A2 | A4 B2 | c4 d2 | (A2 BA) (Bc) | (d>c B2) B2 | (A2 B2) A2 | (B2 A2) (Bc) | d4 A2 | %65
w: Glo- ry|giv'n by|all on|earth * * and *|all * * and|all * and|all * in *|heav'n by|
 (A2 G2) F2 | B4 d2 | B4 A2 | A4 A2 | (B2 A2) (Bc) | (d>c B2) A2 | (B2 AB) c2 | d4 B2 | %73
w: all * on|earth and|all in|heav'n be|hon * our *|praise * * and|Glo * * ry|giv'n by|
 (d>c B2) d2 | (A>B cA) d2 | (d>c B2) A2 | A4 A2 | (A2 G2) F2 | BB B2 d2 | c4 c2 | (d>c B2) A2 | %81
w: all * * on|Earth * * * and|all * * in|heav'n be|hon * our|praise and Glo- ry|giv'n by|all * * on|
 B4 d2 | (A2 B2) A2 | A6 |] %84
w: Earth and|all * in|Heav'n|
V:2
 z4 z4 D4 | (D3 E F4) E4 | (C4 D4) E4 | F8 E4 | E8 D4 | (F4 E4) D4 | (D4 E4) F4 | G8 E4 | F8 F4 | %9
w: ||||* and|God * the|Spi- * rit|thee in|one *|
 (F4 G4) A4 | G8 (F2 D2) | E8 (3F2 E2 D2 | E8 E4 | (F4 E2 D2) E4 | (F3 E D4) (D2 F2) | %15
w: |||* by|all * * on|earth * and all *|
 (E2 D2) [CE]8 | [DF]12 |[M:3/4] z2 z2 z2 | z2 z2 z2 | z2 z2 E2 | (F2 E2) D2 | G4 A2 | A4 A2 | %23
w: in * Heav'n||||be|hon- * our|praise and|Glo- ry|
 (A2 F2) (FA) | G4 E2 | F4 E2 | EE (E2 F2) | (F2 EF G2 | A2) z2 z2 | (A2 GF EF | G2 FA DE | %31
w: Glo * ry *|Glo- ry|giv'n by|all on Earth *|all * * *||a- * * * *||
 F4) F2 | (F2 E2) D2 | (G>A) G2 (FA) | G4 E2 | F4 F2 | (D>E F2) G2 | (A2 G2) (FA) | (G2 FG) (AG) | %39
w: ll by|all * on|Earth * * and *|all in|Heav'n be|hon * * our|praise * and *|Glo * * ry *|
 F4 D2 | (A2 G2) F2 | (F>G A2) A2 | G4 E2 | F4 E2 | (F2 E2) D2 | (G>A G2) A2 | AA A2 A2 | %47
w: giv'n by|all * on|Earth * * and|all in|Heav'n be|hon * our|praise * * and|Glo- ry giv'n by|
 (A2 GF) (EF) | G4 A2 | (F>A GF) E2 | F4 z2 | z2 z2 z2 | z2 z2 E2 | (F2 E2) D2 | G4 A2 | A4 A2 | %56
w: all * * on *|Earth and|all * * * in|Heav'n||be|hon- * our|praise and|Glo- ry|
 (A2 F2) (FA) | G4 E2 | F4 E2 | EE (E2 F2) | (F2 EF G2 | A2) z2 z2 | (A2 GF EF | G2 FA DE | %64
w: Glo * ry *|Glo- ry|giv'n by|all on Earth *|all * * *||a- * * * *||
 F4) F2 | (F2 E2) D2 | (G>A) G2 (FA) | G4 E2 | F4 F2 | (D>E F2) G2 | (A2 G2) (FA) | (G2 FG) (AG) | %72
w: ll by|all * on|Earth * * and *|all in|Heav'n be|hon * * our|praise * and *|Glo * * ry *|
 F4 D2 | (A2 G2) F2 | (F>G A2) A2 | G4 E2 | F4 E2 | (F2 E2) D2 | (G>A G2) A2 | AA A2 A2 | %80
w: giv'n by|all * on|Earth * * and|all in|Hea'n be|hon * our|praise * * and|Glo- ry giv'n by|
 (A2 GF) (EF) | G4 A2 | (F>A GF) E2 | F6 |] %84
w: all * * on *|Earth and|all * * * in|Heav'n|
V:3
 z4 z4 A4 | (F3 G F4) G4 | (A3 B A2) B2 c4 | d8 B4 | A8 A4 | (d3 c B4) A4 | (B4 c4) d4 | %7
w: To|God * * the|Fa * * * ther|God the|Son *|||
 (e4 d4) c4 | B8 A4 | (d3 c B4) (c2 A2) | d8 A4 | (G3 B A2) G2 F4 | A8 A4 | (F3 G A2 B2) (c2 A2) | %14
w: |* be|hon- * * our *|praise and|Glo * * * ry|giv'n *||
 (d3 c B4) A4 | (G3 B A2 G2) F2 E2 | D12 |[M:3/4] z2 z2 z2 | z2 z2 A2 | (d>e d2) c2 | (d>c B2) A2 | %21
w: ||||be|hon * * our|praise * * and|
 (d2 e2) f2 | e4 e2 | (f2 e2) d2 | (e2 d2) c2 | d4 B2 | A4 A2 | (d>e d2) e2 | (f2 e2) d2 | %29
w: Glo * ry|giv'n by|all * on|earth * and|all in|Heav'n by|all * * on|earth * and|
 (A2 d2) c2 | d4 z2 | z2 z2 d2 | (d>c B2) A2 | (d2 e2) f2 | (e2 d2) c2 | d4 z2 | z2 z2 e2 | %37
w: all * in|heav'n|be|hon * * our|praise * and|Glo * ry|giv'n|by|
 (f2 e2) z2 | (d2 c2) z2 | (A2 dc d2) | z2 z2 A2 | (d2 ec A2) | z2 z2 A2 | (d>e d2) c2 | %44
w: all *|by all|by all * *|by|all * * *|be|hon * * our|
 (d>c B2) A2 | (d2 e2) f2 | e4 e2 | (f>e d2) c2 | (d2 e2) f2 | (d>f ed) c2 | d4 z2 | z2 z2 A2 | %52
w: praise * * and|Glo * ry|giv'n by|all * * on|Earth * and|all * * * in|Heav'n|be|
 (d>e d2) c2 | (d>c B2) A2 | (d2 e2) f2 | e4 e2 | (f2 e2) d2 | (e2 d2) c2 | d4 B2 | A4 A2 | %60
w: hon * * our|praise * * and|Glo * ry|giv'n by|all * on|earth * and|all in|Heav'n by|
 (d>e d2) e2 | (f2 e2) d2 | (A2 d2) c2 | d4 z2 | z2 z2 d2 | (d>c B2) A2 | (d2 e2) f2 | (e2 d2) c2 | %68
w: all * * on|earth * and|all * in|heav'n|be|hon * * our|praise * and|Glo * ry|
 d4 z2 | z2 z2 e2 | (f2 e2) z2 | (d2 c2) z2 | (A2 dc d2) | z2 z2 A2 | (d2 ec A2) | z2 z2 A2 | %76
w: giv'n|by|all *|by all|by all * *|by|all * * *|be|
 (d>e d2) c2 | (d>c B2) A2 | (d2 e2) f2 | e4 e2 | (f>e d2) c2 | (d2 e2) f2 | (d>f ed) c2 | d6 |] %84
w: hon * * our|praise * * and|Glo * ry|giv'n by|all * * on|Earth * and|all * * * in|Heav'n|
V:4
 z4 z4 D,4 | D,8 E,4 | (F,3 E, D,4) A,,4 | B,,8 E,4 | A,,8 D,4 | (D,4 E,4) F,4 | (G,3 F, E,4) D,4 | %7
w: |||||||
 G,8 A,4 | D,8 D,4 | (D,4 E,4 F,4) | G,8 F,4 | E,8 D,4 | A,,8 A,,4 | (D,4 C,2 B,,2) A,,4 | %14
w: |||||||
 D,8 D,4 | G,,4 A,,8 | [D,,D,]12 |[M:3/4] z2 z2 A,,2 | (D,>E, D,E,) F,2 | G,4 A,2 | (D,2 E,2) F,2 | %21
w: |||be|hon * * * our|praise and|Glo- * ry|
 (G,>F, E,2) D,2 | [A,,A,]4 [A,,A,]2 | (D,2 E,2) F,2 | (E,>F, G,2) A,2 | D,4 D,2 | A,,4 D,2 | %27
w: Glo- * * ry|giv'n by|all * on|earth * * and|all in|Heav'n by|
 (D,2 G,F,) E,2 | (D,2 E,>F,) G,2 | (F,2 G,2) A,2 | (G,2 F,2) (G,E,) | D,4 D,2 | (D,2 E,2) F,2 | %33
w: all * * on|earth * * and|all * and|all * in *|heav'n be|hon * our|
 (G,>F, E,2) D,2 | [G,,G,]4 [A,,A,]2 | D,4 D,2 | (G,2 F,2) E,2 | (D,2 E,2) F,2 | %38
w: praise * * and|Glo- ry|giv'n by|all * on|earth * and|
 (G,2 A,G,) (F,E,) | D,4 G,2 | (F,2 E,2) D,2 | (D,2 A,2) F,2 | G,4 A,2 | D,4 A,,2 | (D,2 E,2) F,2 | %45
w: all * * in *|heav'n by|all * on|earth * and|all in|heav'n be|hon * our|
 (G,>F, E,2) D,2 | [A,,A,][A,,A,] [A,,A,]2 [A,,A,]2 | ([F,,F,]2 [G,,G,]2) [A,,A,]2 | %48
w: praise * * and|Glo- ry giv'n by|all * on|
 ([G,,G,]>[F,,F,,F,] [E,,E,]2) [D,,D,]2 | ([F,,F,]2 [G,,G,]2) [A,,A,]2 | D,4 A,,2 | %51
w: Earth * * and|all * in|Heav'n be|
 (D,>E, D,E,) F,2 | G,4 A,2 | (D,2 E,2) F,2 | (G,>F, E,2) D,2 | [A,,A,]4 [A,,A,]2 | (D,2 E,2) F,2 | %57
w: hon * * * our|praise and|Glo- * ry|Glo- * * ry|giv'n by|all * on|
 (E,>F, G,2) A,2 | D,4 D,2 | A,,4 D,2 | (D,2 G,F,) E,2 | (D,2 E,>F,) G,2 | (F,2 G,2) A,2 | %63
w: earth * * and|all in|Heav'n by|all * * on|earth * * and|all * and|
 (G,2 F,2) (G,E,) | D,4 D,2 | (D,2 E,2) F,2 | (G,>F, E,2) D,2 | [G,,G,]4 [A,,A,]2 | D,4 D,2 | %69
w: all * in *|heav'n be|hon * our|praise * * and|Glo- ry|giv'n by|
 (G,2 F,2) E,2 | (D,2 E,2) F,2 | (G,2 A,G,) (F,E,) | D,4 G,2 | (F,2 E,2) D,2 | (D,2 A,2) F,2 | %75
w: all * on|earth * and|all * * in *|heav'n by|all * on|earth * and|
 G,4 A,2 | D,4 A,,2 | (D,2 E,2) F,2 | (G,>F, E,2) D,2 | [A,,A,][A,,A,] [A,,A,]2 [A,,A,]2 | %80
w: all in|heav'n be|hon * our|praise * * and|Glo- ry giv'n by|
 ([F,,F,]2 [G,,G,]2) [A,,A,]2 | ([G,,G,]>[F,,F,,F,] [E,,E,]2) [D,,D,]2 | %82
w: all * on|Earth * * and|
 ([F,,F,]2 [G,,G,]2) [A,,A,]2 | D,6 |] %84
w: all * in|Heav'n|

